X: 9980
T: Devil's Dream, The
R: hornpipe
M: 4/4
K: Amajor
(3efg|agae agae|fgag fedc|deBf dfBf|defg agfe|
eaga caga|Aaga fedc|defg afed|c2 A2A2|
ed|ceAe ceAe|ceag fedc|dfBf dfBf|defg afed|
ceAe ceAe|ceag fedc|defg afed|c2A2A2||
ed|(3cec A>d (3cec A>d|ceag fedc|(3dfd B2 (3dfd B2|defg afed|
(3cec A>d (3cec A>d|ceag fedc|defg afed|(3cdc (3BcB A2||
e>d|cAEA cAEA|cAEA fedc|dBFB dBFB|dBFB bfed|
cAEA cAEA|cAEA fedc|defg afed|(3cdc (3BcB A2||
(3efg|aece aece|aece agfe|bfdf bfdf|bfdf bagf|
aece aece|aece fedc|defg afed|cABG A2||
e2|eac'a eac'a|eac'a eac'a|ebd'b ebd'b|ebd'b ebd'b|
eac'a eac'a|eac'a eac'e|defg afed|cABG A2||
e>d|(3cBA eA fAgA|aAgA fAeA|(3dcB fB gBaB|bBaB gBfB|
(3cBA eA fAgA|aA (3fga fedc|defg afed|c2 [e2c2]||

